X: 1
T: Oikeo K\"asi
S: Kes\"ajuhlat 2013, Saarij\"arvi; Suomalaisen Kansantanssin Yst\"av\"at r.y.
Z: 2013 John Chambers <jc:trillian.mit.edu>
M: 2/4
L: 1/8
P: 2X
K: D
|:\
"D"df "A7"e2 | "D"df "A7"e2 | "D"dd/d/ "E7"cB | "A7"A2 A2 :|
w: Vai* niin, vai* niin, vai jo se Vap-pu vie-tiin.
|:\
"D"fd df | "A7"gf ee | ge eg | "D"ba aa |
w: Va-pun kans-sa mon-ta y\"o-t\"a, Va-pun kans-sa mon-ta y\"o-t\"a,
"D"gf dd | "A7"fg fe | eg fe | "D"d2 d2 :|
w: Va-pun kans-sa mon-ta y\"o-t\"a, vie-re-tys-ten maat-tiin.

%%sep 1 1 500

